X:57
T:Morgiana in Ireland. 2voices. Dix.57
M:6/8
L:1/8
Q:1/4=120
S:Anon. MS dated 1811, from Dixon collection, Holton le Moor, Lincs.
C:Dated July 18th 1811 at bottom of ms page
R:jig
N:Repeat signs added at start
O:England;Lincolnshire;Holton le Moor
Z:vmp.R.Greig 2012 <http://www.village-music-project.org.uk>
K:Bb
[V:1]|:F2FB2B|cBcd2F|F2FB2c|d2e dBG|!
[V:2]|:B,,D,F, B,,D,F,|A,,C,F, B,,F,E,|D,2C,B,,2A,,|G,,2zD,2z|!
[V:1]F2FB2B|cBcd2g|gfe dec|B2c dBG:|!
[V:2]D,F,B, D,F,B,|A,G,A, B,B,,E,|E,D,C, B,,C,A,,|G,,2zG,2z:|!
[V:1]|:f2f fed|g2ab3|fgf fed|g2a bfd|!
[V:2]|:D,F,B, D,F,B,|E,G,B, E,G,B,|D,F,B, D,F,B,|E,G,B, D,F,B,|!
[V:1]f2f fed|gag gab|fge dec|BAB dBG:|!
[V:2]D,F,B, D,F,B,|E,G,B, E,G,B,|D,2C,B,,2A,,|G,,2z G,2z:|!
[V:1]|:BAB d<fz|cBc e<gz|BAB B2c|d2e dBG|!
[V:2]|:B,,D,F, B,,D,F,|A,,C,F, A,,C,F,|B,,D,F, B,,D,F,|B,,D,F, B,,D,G,|!
[V:1]BAB d<fz|e<gz d<fz|g<bz d<fz|B2c dBG:|
[V:2]B,,D,F, B,,D,G,|B,,E,G, B,,D,F,|B,,E,G, B,,D,F,|B,,D,F, B,,D,G,:|

